X:256
T:Four Up
M:4/4
L:1/8
Q:1/4=120
K:Em
E2 EF G2 GA | BA GB-BA G2 | AF AB AG F2 | E2 F2 G2 F2 |
E2 EF G2 GA | BA GB-BA G2 | AF AB AG F2 | G2 F2 E4 :||
cc cc-cc c2 | BA GB-BA G2 | AF AB AG F2 | G2 A2 B4 |
cc cc-cc c2 | BA GB-BA G2 | AF AB AG F2 | G2 F2 E4 :|]
